dhis-2/dhis-support/dhis-support-system/src/main/resources/SVGs/contraceptive_injection_positive.svg

<?xml version="1.0" encoding="UTF-8" standalone="no"?>
<!-- Created with Inkscape (http://www.inkscape.org/) -->
<svg id="svg8" xmlns:rdf="http://www.w3.org/1999/02/22-rdf-syntax-ns#" xmlns="http://www.w3.org/2000/svg" xmlns:osb="http://www.openswatchbook.org/uri/2009/osb" height="48" width="48" version="1.1" xmlns:cc="http://creativecommons.org/ns#" viewBox="0 0 12.7 12.7" xmlns:dc="http://purl.org/dc/elements/1.1/">
 <title id="title4753">UIO-icon</title>
 <metadata id="metadata5">
  <rdf:RDF>
   <cc:Work rdf:about="">
    <dc:format>image/svg+xml</dc:format>
    <dc:type rdf:resource="http://purl.org/dc/dcmitype/StillImage"/>
    <dc:title>UIO-icon</dc:title>
    <dc:creator>
     <cc:Agent>
      <dc:title>Joaquín Urbano</dc:title>
     </cc:Agent>
    </dc:creator>
    <dc:rights>
     <cc:Agent>
      <dc:title>GPL</dc:title>
     </cc:Agent>
    </dc:rights>
   </cc:Work>
  </rdf:RDF>
 </metadata>
 <g id="layer1" transform="translate(0,-284.3)">
  <path id="rect3210" d="m24.004 4.373c-3.6085 0.00078463-6.5618 0.53471-6.6816 1.2109h-0.011719v3.67h0.003906c0.034526 0.48127 3.0188 0.87101 6.6914 0.87109 3.6722-0.00015685 6.6587-0.38986 6.6934-0.87109h0.001953v-3.6699h-0.007813c-0.11994-0.67697-3.0777-1.2105-6.6875-1.2109zm2.988 0.4551c1.6778 0.12241 2.7006 0.34328 2.7031 0.57812 0 0.37429-2.5493 0.67578-5.6914 0.67578s-5.6872-0.30189-5.6875-0.67578c0.002298-0.22402 0.93673-0.43336 2.498-0.55859-0.12068 0.064736-0.18243 0.14342-0.18359 0.21875 0 0.37429 1.4709 0.67578 3.2852 0.67578 1.8141-0.000078614 3.285-0.3013 3.2852-0.67578-0.001-0.0808-0.071-0.1622-0.209-0.2383zm-5.1387 2.084h0.32031v2.377h-0.32031zm0.66211 0h0.32031v2.377h-0.319zm0.66211 0h0.32031v2.377h-0.32031zm0.66211 0h0.32031v2.377h-0.32031zm0.66211 0h0.32031v2.377h-0.32031zm0.66211 0h0.321v2.377h-0.32031zm0.66211 0h0.32031v2.377h-0.32031zm-7.282 3.1819c0.00459 0.29582 0.067233 0.62534 0.51172 1.1836l-3.2441 1.3984c-0.76879 0.31073-1.0053 0.8248-1.0742 1.2383v3.3906c-0.00001448 5.5749-0.00001033 6.3684 0 9.0059v0.099609c0.00000105 0.39363-0.00000206 0.9921 0 1.3535v1.043c0.00000519 0.74528-0.00000414 2.2521 0 2.9434v0.085938c0.00001558 2.2609 4e-8 5.8546 0 9.627v0.011719h0.003906c0.041822 1.1929 4.1748 2.152 9.2637 2.1523 5.0392-0.00035409 9.1402-0.9425 9.2598-2.1191v-27.426c-0.051043-0.41505-0.26715-1.0006-1.166-1.3613l-3.4824-1.3965c0.36707-0.32446 0.58239-0.75801 0.76367-1.2148-1.22 0.21617-3.1721 0.35547-5.375 0.35547-2.2565 0-4.2461-0.14512-5.459-0.36914zm0.73047 0.61914c2.421 0.32956 6.5709 0.39723 9.123 0.046875l-0.65625 0.77148 4.1504 1.6562c1.0336 0.3901 0.8498 1.03 0.86328 1.293v0.17383c-1.4237 0.81511-4.9401 1.4107-8.6973 1.4121-3.8606-0.001883-7.4416-0.56639-8.793-1.4141-0.013928-0.2494-0.15293-1.1155 0.56641-1.418l4.0488-1.7676zm-4.0273 4.5078c1.374 0.862 4.952 1.362 8.754 1.363 3.7987-0.00027478 7.3725-0.4773 8.7461-1.3438l-0.007813 2.4004c-1.3894 0.83108-4.9267 1.3752-8.7344 1.377-3.8053-0.00153-7.3616-0.59111-8.7539-1.4219zm8.7266 7.0195v0.001953c0.086469 0 0.17304 0.003376 0.25977 0.005859 0.74142 0.028876 1.4644 0.19657 2.1328 0.48828 0.66841 0.29171 1.2822 0.70744 1.8066 1.2324 0.52385 0.5266 0.92842 1.1296 1.2129 1.7754 0.28447 0.64577 0.44915 1.3341 0.49023 2.0293 0.041081 0.69523-0.039784 1.3973-0.24609 2.0723-0.20631 0.67499-0.53839 1.3232-0.99609 1.9082l-8.2461-8.2734c0.514-0.4 1.085-0.709 1.691-0.919 0.60591-0.2097 1.246-0.3205 1.8945-0.32227zm2.8457 2.002c-0.53808-0.003175-1.2035 0.13618-1.6934 0.53125-0.24495 0.19753-0.44579 0.45912-0.56445 0.79883-0.11866 0.3397-0.15605 0.7573-0.072266 1.2676-0.064071 0.036057-0.10219 0.084471-0.10742 0.15234l0.72461 0.71094c0.031925 0 0.057242-0.014402 0.072266-0.054688 0.72637 0.15329 1.2823 0.052807 1.6992-0.18945 0.41696-0.24226 0.69614-0.62652 0.86523-1.041 0.16909-0.4145 0.22816-0.85923 0.21094-1.2227-0.017226-0.36343-0.11191-0.64533-0.25391-0.73438-0.1182-0.12267-0.45976-0.21233-0.88086-0.21484zm-7.4531 0.26367 8.248 8.2715c-0.58646 0.45616-1.2346 0.78426-1.9102 0.98828-0.67555 0.20402-1.3773 0.2839-2.0723 0.24023-0.69501-0.043661-1.3825-0.21116-2.0273-0.49805-0.64486-0.28689-1.2483-0.6931-1.7734-1.2188-0.525-0.528-0.929-1.131-1.214-1.776-0.285-0.646-0.45-1.335-0.492-2.03-0.041568-0.69499 0.040149-1.3975 0.24609-2.0723s0.53644-1.3212 0.99414-1.9062zm2.9609 3.627c-0.32549 0.17101-0.15317 0.6759-0.011719 1.1621 0.070725 0.24311 0.1339 0.48167 0.12305 0.67188-0.010854 0.1902-0.095669 0.33137-0.32031 0.38086-1.008-0.006765-1.4651 0.21634-1.668 0.52539-0.20292 0.30905-0.15173 0.70402-0.14453 1.0391 0.10507-0.47749 0.19997-0.75809 0.44727-0.91797s0.64699-0.19904 1.3652-0.19727c0.36776-0.071709 0.69219-0.19578 0.87695-0.48828 0.18477-0.29251 0.22986-0.75344 0.037109-1.502zm-7.077 7.346c1.3842 0.83245 5.0088 1.9412 8.8203 1.9434 3.802-0.00070602 7.2772-1.1144 8.6738-1.9434l-0.001953 5.1699c-1.744-0.836-5.031-1.483-8.83-1.483-3.802 0.001-7.266 0.653-8.662 1.482z" fill-rule="evenodd" transform="matrix(.26458 0 0 .26458 0 284.3)" fill="#333"/>
 </g>
</svg>

<svg width="48" height="48" viewBox="0 0 48 48" fill="none" xmlns="http://www.w3.org/2000/svg">
<path fill-rule="evenodd" clip-rule="evenodd" d="M24.0038 4.37305C20.3954 4.37383 17.4421 4.90775 17.3223 5.58393H17.3106V9.25389H17.3145C17.349 9.73515 20.3333 10.1249 24.0058 10.125C27.678 10.1248 30.6644 9.73511 30.6991 9.25389H30.7011V5.58403H30.6933C30.5733 4.90707 27.6156 4.37355 24.0058 4.37315L24.0038 4.37305ZM26.9918 4.82814C28.6696 4.95055 29.6923 5.17142 29.6948 5.40625C29.6948 5.78054 27.1456 6.08203 24.0035 6.08203C20.8615 6.08203 18.3164 5.78014 18.3161 5.40625C18.3184 5.18224 19.2528 4.9729 20.8141 4.84767C20.6934 4.91241 20.6316 4.99109 20.6305 5.06642C20.6305 5.4407 22.1014 5.74219 23.9156 5.74219C25.7297 5.74211 27.2006 5.44089 27.2008 5.06642C27.1998 4.98562 27.1298 4.90422 26.9918 4.82812V4.82814ZM21.8531 6.91211H22.1735V9.28908H21.8531V6.91211ZM22.5152 6.91211H22.8356V9.28908H22.5166L22.5152 6.91211ZM23.1773 6.91211H23.4977V9.28908H23.1773V6.91211ZM23.8394 6.91211H24.1598V9.28908H23.8394V6.91211ZM24.5016 6.91211H24.8219V9.28908H24.5016V6.91211ZM25.1637 6.91211H25.4846V9.28908H25.1643L25.1637 6.91211ZM25.8258 6.91211H26.1461V9.28908H25.8258V6.91211ZM18.5438 10.094C18.5484 10.3898 18.6111 10.7193 19.0556 11.2776L15.8115 12.6759C15.0427 12.9867 14.8062 13.5007 14.7373 13.9142V17.3048C14.7373 22.8796 14.7373 23.6731 14.7373 26.3106V26.4102C14.7373 26.8038 14.7373 27.4023 14.7373 27.7637V28.8067C14.7373 29.5519 14.7373 31.0587 14.7373 31.75V31.8359C14.7373 34.0968 14.7373 37.6905 14.7373 41.4628V41.4745H14.7412C14.783 42.6674 18.916 43.6265 24.0048 43.6268C29.0439 43.6265 33.1449 42.6843 33.2645 41.5077V14.0821C33.2134 13.667 32.9973 13.0815 32.0985 12.7208L28.6161 11.3243C28.9832 10.9999 29.1985 10.5663 29.3798 10.1095C28.1598 10.3257 26.2077 10.465 24.0049 10.465C21.7484 10.465 19.7588 10.3199 18.5459 10.0959L18.5438 10.094ZM19.2743 10.7131C21.6953 11.0427 25.8451 11.1103 28.3972 10.76L27.741 11.5315L31.8913 13.1876C32.9249 13.5777 32.7411 14.2176 32.7546 14.4806V14.6544C31.3309 15.4695 27.8145 16.0651 24.0574 16.0665C20.1968 16.0646 16.6159 15.5001 15.2645 14.6524C15.2506 14.403 15.1116 13.537 15.8309 13.2345L19.8796 11.4669L19.2743 10.7131ZM15.2471 15.2209C16.621 16.0828 20.199 16.5828 24.0009 16.5838C27.7996 16.5836 31.3734 16.1065 32.7469 15.2401L32.7391 17.6404C31.3497 18.4715 27.8125 19.0156 24.0048 19.0174C20.1996 19.0159 16.6433 18.4263 15.251 17.5955L15.2471 15.2209ZM23.9735 22.2403V22.2422C24.06 22.2422 24.1466 22.2456 24.2333 22.2481C24.9747 22.2769 25.6977 22.4446 26.3661 22.7363C27.0345 23.0281 27.6483 23.4438 28.1727 23.9687C28.6965 24.4953 29.1011 25.0983 29.3855 25.7441C29.67 26.3899 29.8347 27.0782 29.8758 27.7734C29.9169 28.4686 29.836 29.1707 29.6297 29.8457C29.4234 30.5206 29.0913 31.1688 28.6336 31.7538L20.3876 23.4805C20.9016 23.0805 21.4726 22.7715 22.0786 22.5616C22.6845 22.3519 23.3246 22.2411 23.9731 22.2393L23.9735 22.2403ZM26.8192 24.2422C26.2811 24.2391 25.6157 24.3784 25.1258 24.7735C24.8809 24.971 24.68 25.2326 24.5614 25.5723C24.4427 25.912 24.4053 26.3296 24.4891 26.8399C24.4251 26.8759 24.3869 26.9244 24.3817 26.9922L25.1063 27.7032C25.1382 27.7032 25.1635 27.6888 25.1786 27.6485C25.9049 27.8018 26.4609 27.7013 26.8778 27.459C27.2947 27.2168 27.5739 26.8325 27.743 26.418C27.9121 26.0035 27.9711 25.5588 27.9539 25.1953C27.9367 24.8319 27.842 24.55 27.7 24.461C27.5818 24.3383 27.2402 24.2486 26.8192 24.2461V24.2422ZM19.3662 24.5059L27.6141 32.7773C27.0276 33.2335 26.3795 33.5615 25.7039 33.7656C25.0284 33.9696 24.3266 34.0495 23.6317 34.0058C22.9367 33.9621 22.2492 33.7946 21.6044 33.5078C20.9595 33.2209 20.3561 32.8147 19.831 32.289C19.306 31.761 18.902 31.158 18.617 30.513C18.332 29.867 18.167 29.178 18.125 28.483C18.0835 27.788 18.1652 27.0855 18.3711 26.4107C18.577 25.736 18.9075 25.0896 19.3652 24.5046L19.3662 24.5059ZM22.3271 28.1329C22.0016 28.3039 22.1739 28.8088 22.3154 29.2949C22.3861 29.5381 22.4492 29.7766 22.4384 29.9668C22.4275 30.157 22.3427 30.2982 22.1181 30.3477C21.1101 30.3409 20.653 30.564 20.4501 30.8731C20.2472 31.1821 20.2984 31.5771 20.3056 31.9121C20.4107 31.4347 20.5056 31.1541 20.7528 30.9942C21.0001 30.8343 21.3998 30.7951 22.118 30.7969C22.4858 30.7252 22.8102 30.6011 22.995 30.3086C23.1797 30.0161 23.2248 29.5552 23.0321 28.8067L22.3271 28.1329ZM15.2502 35.4788C16.6343 36.3112 20.2589 37.4199 24.0703 37.4221C27.8723 37.4214 31.3475 36.3078 32.744 35.4788L32.7421 40.6486C30.9981 39.8126 27.7111 39.1656 23.9122 39.1656C20.1102 39.1666 16.6463 39.8186 15.2503 40.6476L15.2502 35.4788Z" fill="#333333"/>
</svg>
